packages/foundations/assets/icons/functional/images/date & time/clock_24.svg

<svg width="24" height="24" viewBox="0 0 24 24" fill="none" xmlns="http://www.w3.org/2000/svg">
<g clip-path="url(#clip0_185_672)">
<path fill-rule="evenodd" clip-rule="evenodd" d="M12 2C17.5164 2 22 6.4836 22 12C22 17.5164 17.5164 22 12 22C6.4836 22 2 17.5164 2 12C2 6.4836 6.4836 2 12 2ZM12 4.0188C7.5869 4.0188 4.0188 7.5869 4.0188 12C4.0188 16.4131 7.5869 19.9812 12 19.9812C16.4131 19.9812 19.9812 16.4131 19.9812 12C19.9812 7.5869 16.4131 4.0188 12 4.0188ZM11 12.1174V7C11 6.4836 11.5 6 12 6C12.5 6 13 6.5 13 7C13 7 13.0031 8.53363 13.0094 11.6009L15.7089 14.277C15.9118 14.4672 16.0188 14.7259 16.0188 14.9865C16.0188 15.4738 15.6317 15.9506 14.9774 15.9506C14.7072 15.9506 14.4427 15.8622 14.277 15.6854L11.3286 12.7277C11.1409 12.5634 11.047 12.3521 11 12.1174Z" fill="#1A1C1F"/>
</g>
<defs>
<clipPath id="clip0_185_672">
<rect width="24" height="24" fill="white"/>
</clipPath>
</defs>
</svg>

<svg xmlns="http://www.w3.org/2000/svg" width="24" height="24" fill="none"><g clip-path="url(#a)"><path fill="#1A1C1F" fill-rule="evenodd" d="M12 2c5.516 0 10 4.484 10 10s-4.484 10-10 10S2 17.516 2 12 6.484 2 12 2m0 2.019A7.975 7.975 0 0 0 4.019 12 7.975 7.975 0 0 0 12 19.981 7.975 7.975 0 0 0 19.981 12 7.975 7.975 0 0 0 12 4.019m-1 8.098V7c0-.516.5-1 1-1s1 .5 1 1l.01 4.6 2.699 2.677c.203.19.31.449.31.71 0 .487-.387.964-1.042.964-.27 0-.534-.089-.7-.266l-2.948-2.957c-.188-.165-.282-.376-.329-.61" clip-rule="evenodd"/></g><defs><clipPath id="a"><path fill="#fff" d="M0 0h24v24H0z"/></clipPath></defs></svg>
